X:38
T: Die Brombeerpflueckerin
N: Q0147D
O: Osteuropa, Tschechoslowakei, Slowakei, Dt. Proben, Kremnitz,
N: Vierte und siebte Zeile refrainartig.
R: Ballade, Verfuehrung, Schwangerschaft
M: 6/8
L: 1/8
K: D
F | A2AA2B | A2GF2
A | d2dc2B | G2z3
c | edBedB | A2dA2
d | c2BAGA | F2z3
A | edBedB | A2dA2
d | c2BAGA | F2z3

@@@ Tune index: 1641
